X:2791
T:The Warlocks
C:Lowe
O:Scotland
R:Strathspey
Z:Transcribed by Frank Nordberg - http://www.musicaviva.com
M:C
L:1/8
K:Em
EG>F E2  EF/G/   |A<dA>F D2  D<d     |   B<EG>F E>Be>f      |g>e
g/f/e/^d/ e2e:|\
B|e>gB>g e<B e/f/g/e/|
                      f>ad>a f<d f/g/a/f/|[1 e>gB>g eB e/f/g/e/ |d>BA<F E2E:|\
                                         |[2 e<gf<e d>BA<F      |G<BA<F E2E|]
W:Written by Joseph Lowe's son as an accompanying strathspey for
W:Joseph Lowe's "The witches". Play this first, then "The witches"
W:immediately after.
W:
W:
W:  From Musica Viva - http://www.musicaviva.com
W:  the Internet center for free sheet music downloads.

